X:1
T:24
L:1/8
Q:1/4=100
M:4/4
K:G
V:1 treble nm="Piano" snm="Pno."
V:1
!p!"^Moderato" G4 c4 | B4 d4 | c4 e4 | d4 z4 | d4 B4 | A4 c4 | B4 A4 | G4 z4 | G4 B4 | A4 c4 | %10
 B4 d4 | c4 z4 | c4 e4 | A4 z4 | G4 B4 | c4 z4 |] %16

